X: 51
T: Missa Mi mi / Sanctus
N: Derived from Ock1010d-Missa_Mi_mi-Sanctus.krn
C: Johannes Ockeghem
%%abc-version 2.0
%%abcx-abcm2ps-target-version 5.9.1 (29 Sep 2008)
%%abc-creator hum2abc beta
%%abcx-conversion-date 2019/02/17 07:26:15
%%abc-edited-by Jesse Rodin
%%abc-edited-by Will Watson 30/01/2012
%%abcx-initial-encoding-date 2012/01/30/
%%humdrum-veritas 2498568949
%%humdrum-veritas-data 3895454774
%%linebreak <none>
%%barnumbers 0
L: 1/4
M: 3/1
Q: 1/2=120
%%staves [1 2 3 4]
V: 1 clef=treble
V: 2 clef=treble-8
V: 3 clef=treble-8
V: 4 clef=bass
K: C
[V:1] E12- | 
[V:2] B6A2c4- | 
[V:3] E4G3FA4 | 
[V:4] E,6A,,2A,,4 | 
[V:1] E4D3CA,4 | 
[V:2] c4d8 | 
[V:3] G4D8 | 
[V:4] E,4F,8 | 
[V:1] G,4z4G4 | 
[V:2] e12- | 
[V:3] B8c4 | 
[V:4] E,8C,4 | 
[V:1] G4A6G2 | 
[V:2] e4d3cA4 | 
[V:3] B4A2c4BA | 
[V:4] E,4F,8 | 
[V:1] B4A2G4c2 | 
[V:2] d6e4c2 | 
[V:3] G4A2B2c2A2 | 
[V:4] G,4F,2E,2C,4 | 
[V:1] B2G4A3GA2- | 
[V:2] d2e4c2B2c2 | 
[V:3] G4E2F3GF2- | 
[V:4] G,,4z4z4 | 
[V:1] A2F2E4D4 | 
[V:2] A2d4^c2d4 | 
[V:3] F2D2A4z2F2 | 
[V:4] z4z4D,4 | 
[V:1] z4D3EG4- | 
[V:2] B2G2D4z2d2- | 
[V:3] G2_B2A4_B2G2 | 
[V:4] E,2G,3E,F,2G,4 | 
[V:1] G2F2G3EF3G | 
[V:2] d6c2d4 | 
[V:3] A4z2G2A3B | 
[V:4] D,4E,4D,3C, | 
[V:1] A2B3GG3Ac2 | 
[V:2] e4d2c2e4 | 
[V:3] c2B2G4c4 | 
[V:4] A,,2G,,4C,4A,,2 | 
[V:1] B2A4G4^F2 | 
[V:2] d4c3Bd4 | 
[V:3] z2F2G4A4 | 
[V:4] D,4E,4D,4 | 
[V:1] G4z4E4 | 
[V:2] d4e6de | 
[V:3] G12 | 
[V:4] G,,4C,8 | 
[V:1] A6G2G3F | 
[V:2] f8e4 | 
[V:3] F4c4G4 | 
[V:4] z4z4C,4 | 
[V:1] D4z4G4 | 
[V:2] A4d2d3^c^cB | 
[V:3] z12 | 
[V:4] F,6D,2E,4 | 
[V:1] A4B4c2A2 | 
[V:2] d8c4 | 
[V:3] F4G4A4 | 
[V:4] D,4G,,4z4 | 
[V:1] A6^G2G2^F2 | 
[V:2] A4E4e4 | 
[V:3] c4B8 | 
[V:4] A,,4E,8 | 
[V:1] A4A2F4A2- | 
[V:2] c4d8 | 
[V:3] A8D4 | 
[V:4] F,4D,6C,B,, | 
[V:1] AGE4G3FE2 | 
[V:2] e2c2B4G2A2- | 
[V:3] C4G3AB2c2- | 
[V:4] A,,4G,,4z4 | 
[V:1] D4C2A,2B,4 | 
[V:2] AFG2A2F2E4 | 
[V:3] cAB2A2A4G2 | 
[V:4] z12 | 
[V:1] A,4z4G4 | 
[V:2] E4F4G4 | 
[V:3] A2c2A2_B4G2 | 
[V:4] A,,4D,4_E,4 | 
[V:1] A4G2E4C2 | 
[V:2] z2c4G2A2F2 | 
[V:3] F4c8 | 
[V:4] z2F,2E,2C,4A,,2 | 
[V:1] D2C2E3DB,4 | 
[V:2] G2E4A2G2E2 | 
[V:3] B2A3GE4G2 | 
[V:4] G,,2A,,6E,4 | 
[V:1] C3A,A2A4G2 | 
[V:2] E6F2G4 | 
[V:3] A2c4A2B4 | 
[V:4] A,,8E,4 | 
[V:1] A4A2G3EE2 | 
[V:2] z2D2F2C2c3A | 
[V:3] A4F2E2G4- | 
[V:4] F,4D,2E,4C,2 | 
[V:1] D2F3EE4D2 | 
[V:2] B2c4c2A3G | 
[V:3] G2A4E2F4 | 
[V:4] B,,2A,,2C,4D,4 | 
[V:1] E12- | 
[V:2] A4B8 | 
[V:3] E12- | 
[V:4] A,,4z4E,4 | 
[V:1] E12 ||  
[V:2] B12 ||  
[V:3] E12 ||  
[V:4] E,12 ||  
[V:1] [M:3/1]E6F2G2FG | 
[V:2] [M:3/1]A4c2d2e2de | 
[V:3] [M:3/1]z12 | 
[V:4] [M:3/1]z12 | 
[V:1] A8A3F | 
[V:2] f3ec2d4f2 | 
[V:3] z12 | 
[V:4] z12 | 
[V:1] G3AB2c3AB2- | 
[V:2] e8c2d2 | 
[V:3] z12 | 
[V:4] z12 | 
[V:1] BAGFE2A4^G2 | 
[V:2] e4A2c2B4 | 
[V:3] z12 | 
[V:4] z12 | 
[V:1] A4z4z4 | 
[V:2] A4z4z4 | 
[V:3] E6F2G2FG | 
[V:4] A,,4C,2D,2E,2D,E, | 
[V:1] z12 | 
[V:2] z12 | 
[V:3] A12- | 
[V:4] F,3E,C,2D,3C,/B,,/A,,2- | 
[V:1] z12 | 
[V:2] z12 | 
[V:3] A8G4 | 
[V:4] A,,2D,2C,2D,2E,4 | 
[V:1] z12 | 
[V:2] z12 | 
[V:3] A8A4 | 
[V:4] A,,3B,,C,2D,3C,B,,A,, | 
[V:1] z12 | 
[V:2] z12 | 
[V:3] B4A4G3E- | 
[V:4] G,,2D,3C,D,2E,2G,2- | 
[V:1] z12 | 
[V:2] z12 | 
[V:3] ECD2E2G4^F2 | 
[V:4] G,2F,2G,4A,4 | 
[V:1] z4z4B4 | 
[V:2] z4z4d4 | 
[V:3] G4z4G4 | 
[V:4] G,8z4 | 
[V:1] c4B2G4A2- | 
[V:2] e4d2B2c4 | 
[V:3] C4G4E2F2- | 
[V:4] z12 | 
[V:1] AGG2A2c4B2 | 
[V:2] A2B2c4d4 | 
[V:3] F2E2C4G4 | 
[V:4] z12 | 
[V:1] A2GFE6F2- | 
[V:2] z2c4BAG2A2- | 
[V:3] F2EDC4E2D2- | 
[V:4] z12 | 
[V:1] F2E2D3CE3C | 
[V:2] A2c4B2c4 | 
[V:3] D2C2G4C4 | 
[V:4] z12 | 
[V:1] D2C2G3ABA/B/c2- | 
[V:2] z2c3Bc2d2A2 | 
[V:3] z12 | 
[V:4] z12 | 
[V:1] cAB2G2A4G2- | 
[V:2] c2G2cBAGF2G2 | 
[V:3] z12 | 
[V:4] z12 | 
[V:1] G2^F2G8 ||  
[V:2] A4G8 ||  
[V:3] z12 ||  
[V:4] z12 ||  
[V:1] [M:3/1]E6F2G4 | 
[V:2] [M:3/1]G8c3d | 
[V:3] [M:3/1]c12 | 
[V:4] [M:3/1]C,6D,2E,4 | 
[V:1] G4E2A4G2 | 
[V:2] e12 | 
[V:3] B4c4B4 | 
[V:4] E,4C,2D,2E,4 | 
[V:1] A2B2A2c3AB2 | 
[V:2] e4c2A2B4 | 
[V:3] A2G2A2F2E4 | 
[V:4] A,,2E,2F,2A,4G,2 | 
[V:1] c3BG2A4^G2 | 
[V:2] A2F2E4z4 | 
[V:3] z2c4c2B4 | 
[V:4] A,2A,,2C,2A,,2E,4 | 
[V:1] A4z4D4 | 
[V:2] c6A2G4 | 
[V:3] A8B4 | 
[V:4] F,6E,F,G,F,E,D, | 
[V:1] E4F2G2A2B2- | 
[V:2] G4A2B2A2G2 | 
[V:3] c4A2G2c2B2 | 
[V:4] C,4z2E,2F,2G,2 | 
[V:1] B2G2A2G2c4 | 
[V:2] d2e4d3Bc2 | 
[V:3] G4z2G2A4 | 
[V:4] G,,2C,4B,,2A,,4 | 
[V:1] B2G2F2A3GE2- | 
[V:2] d8e3d/c/ | 
[V:3] B4A4c3B | 
[V:4] G,,4D,4A,,4 | 
[V:1] E2D2FGA4G2- | 
[V:2] B4d6c2 | 
[V:3] G4A2D2F2G2 | 
[V:4] z2G,2D,2F,4E,2 | 
[V:1] G2F2G4E2D2 | 
[V:2] d6B2c2d2 | 
[V:3] A4G4z2G2 | 
[V:4] D,4z2G,2A,2B,2 | 
[V:1] F3GE4F2A2- | 
[V:2] A4G4c3d | 
[V:3] A2B2c4F3E/D/ | 
[V:4] C4C,4z2F,2 | 
[V:1] A2G2E2G4E2 | 
[V:2] e4c2B2G4 | 
[V:3] C4G3AB2c2- | 
[V:4] E,2C,4E,4C,2 | 
[V:1] D4C4A,2B,2 | 
[V:2] z4E4F2D2 | 
[V:3] c2B2c2A3FG2 | 
[V:4] G,4C,4D,2B,,2 | 
[V:1] C2A,2z2G2A2_B2 | 
[V:2] E2A2G2c2d2f2- | 
[V:3] A2F2E4D4 | 
[V:4] A,,4C,4z2D,2- | 
[V:1] AFE4A4G2 | 
[V:2] fee2c2d2e4- | 
[V:3] A4G2A2c2B2 | 
[V:4] D,2C,2E,2F,2E,4 | 
[V:1] A2c2B2A4G2 | 
[V:2] e4B2c3de2 | 
[V:3] A4G2FA2FE2 | 
[V:4] A,,C,2D,E,2A,,4C,2 | 
[V:1] F2A3G/F/E3CDB, | 
[V:2] f2d2e4c2B2 | 
[V:3] D4C4G4 | 
[V:4] D,2F,2E,2C,3B,,G,,2 | 
[V:1] A,2G,C2DE4F2- | 
[V:2] c2e2A2z2c2d2 | 
[V:3] A2E2F2E4D2 | 
[V:4] z2C,2A,,D,2C,A,,2B,,2 | 
[V:1] FEED/E/FD2CE4- | 
[V:2] c2B2A4B4- | 
[V:3] A2G2F4E4- | 
[V:4] A,,2B,,2D,4z4 | 
[V:1] E12 ||  
[V:2] B12 ||  
[V:3] E12 ||  
[V:4] G,6E,2E,4 ||  
[V:1] [M:2/1]z8 | 
[V:2] [M:2/1]z8 | 
[V:3] [M:2/1]E8 | 
[V:4] [M:2/1]E,8- | 
[V:1] z8 | 
[V:2] z8 | 
[V:3] G8 | 
[V:4] E,8 | 
[V:1] z8 | 
[V:2] z8 | 
[V:3] A6GF | 
[V:4] F,6E,D, | 
[V:1] z8 | 
[V:2] z8 | 
[V:3] G2ABc4 | 
[V:4] E,4A,,4 | 
[V:1] z8 | 
[V:2] z8 | 
[V:3] B2c4A2 | 
[V:4] z2A,,2C,2D,2 | 
[V:1] z8 | 
[V:2] z8 | 
[V:3] G6A2 | 
[V:4] E,6F,2 | 
[V:1] z8 | 
[V:2] z8 | 
[V:3] B2ABc2BA | 
[V:4] G,2F,G,A,2E,2- | 
[V:1] z8 | 
[V:2] z8 | 
[V:3] G2A4^G2 | 
[V:4] E,2C,2B,,4 | 
[V:1] z8 ||  
[V:2] z8 ||  
[V:3] A8 ||  
[V:4] A,,8 ||  
[V:1] [M:2/1]E6FG | 
[V:2] [M:2/1]e8- | 
[V:3] [M:2/1]z8 | 
[V:4] [M:2/1]z8 | 
[V:1] A2G4FG | 
[V:2] e8 | 
[V:3] z8 | 
[V:4] z8 | 
[V:1] A2D2z2A2- | 
[V:2] f8- | 
[V:3] z8 | 
[V:4] z8 | 
[V:1] A6F2 | 
[V:2] f8 | 
[V:3] z8 | 
[V:4] z8 | 
[V:1] G3AB2c2- | 
[V:2] e8- | 
[V:3] z8 | 
[V:4] z8 | 
[V:1] c2BAG2A2 | 
[V:2] e8- | 
[V:3] z8 | 
[V:4] z8 | 
[V:1] B2A4^G2 | 
[V:2] e8 | 
[V:3] z8 | 
[V:4] z8 | 
[V:1] A8 | 
[V:2] A8 | 
[V:3] z8 | 
[V:4] z8 | 
[V:1] z4A4 | 
[V:2] z8 | 
[V:3] D8 | 
[V:4] z8 | 
[V:1] G4E4 | 
[V:2] z8 | 
[V:3] E4G4 | 
[V:4] z8 | 
[V:1] D4A4- | 
[V:2] z8 | 
[V:3] F6D2 | 
[V:4] z8 | 
[V:1] A4G4 | 
[V:2] z8 | 
[V:3] F4E4 | 
[V:4] z8 | 
[V:1] F6ED | 
[V:2] z8 | 
[V:3] D4A4- | 
[V:4] z8 | 
[V:1] C4D2E2- | 
[V:2] z8 | 
[V:3] A4G4 | 
[V:4] z8 | 
[V:1] EDCB,A,4- | 
[V:2] z8 | 
[V:3] F2F4ED | 
[V:4] z8 | 
[V:1] A,2G,F,G,3A, | 
[V:2] z8 | 
[V:3] C3DE3F | 
[V:4] z8 | 
[V:1] B,CD3CD2 | 
[V:2] z8 | 
[V:3] G3AB4 | 
[V:4] z8 | 
[V:1] E2C2B,4 | 
[V:2] z8 | 
[V:3] E2A4G2 | 
[V:4] z8 | 
[V:1] A,4z4 | 
[V:2] z8 | 
[V:3] c6A2 | 
[V:4] z8 | 
[V:1] G3FA4- | 
[V:2] z8 | 
[V:3] _B2AGF2ED | 
[V:4] z8 | 
[V:1] A2G2F2D2 | 
[V:2] z8 | 
[V:3] C4FGAB | 
[V:4] z8 | 
[V:1] E2A3FF2- | 
[V:2] z8 | 
[V:3] c4F2GA- | 
[V:4] z8 | 
[V:1] FDE2A,4 | 
[V:2] z8 | 
[V:3] AFG2A2D2- | 
[V:4] z8 | 
[V:1] B,2A,4D2 | 
[V:2] z8 | 
[V:3] D2C2D2B,2 | 
[V:4] z8 | 
[V:1] C2E4D2 | 
[V:2] z8 | 
[V:3] A,6B,2 | 
[V:4] z8 | 
[V:1] C2B,A,G,4 | 
[V:2] z8 | 
[V:3] C3DB,2E2- | 
[V:4] z8 | 
[V:1] z4G4 | 
[V:2] z8 | 
[V:3] E2C2B,4 | 
[V:4] z8 | 
[V:1] A4G2A2 | 
[V:2] z8 | 
[V:3] A,4z2A2- | 
[V:4] z8 | 
[V:1] F2E4A2- | 
[V:2] z8 | 
[V:3] A2G2A2F2 | 
[V:4] z8 | 
[V:1] AGA2F2D2- | 
[V:2] z8 | 
[V:3] D4A2F2 | 
[V:4] z8 | 
[V:1] D2F2E2F2- | 
[V:2] z8 | 
[V:3] G2A4A,2 | 
[V:4] z8 | 
[V:1] FDD4^C2 | 
[V:2] z8 | 
[V:3] D2F2E4 | 
[V:4] z8 | 
[V:1] D8 ||  
[V:2] z8 ||  
[V:3] D8 ||  
[V:4] z8 ||  



